src/components/icons/customers/logos/skillsoft.svg

<svg width="160" height="72" viewBox="0 0 160 72" xmlns="http://www.w3.org/2000/svg"><title>customer/skillsoft</title><g transform="translate(4 8)" fill="#7B7194" fill-rule="evenodd"><path d="M9.463 56c-2.117 0-3.975-.425-5.53-1.276-1.556-.851-2.81-2.128-3.803-3.83l-.13-.17 5.056-5.105.172.426c.519 1.276 1.21 2.212 2.074 2.808.865.595 1.945.893 3.284.893 1.383 0 2.593-.383 3.5-1.106.908-.723 1.513-1.787 1.729-3.063.13-.809.043-1.574-.26-2.213-.345-.638-.907-1.233-1.771-1.744-.216-.128-.519-.34-.95-.596-2.507-1.489-4.106-2.722-4.883-3.786a6.645 6.645 0 0 1-1.124-2.723 9.074 9.074 0 0 1 .043-3.233c.476-2.808 1.945-5.233 4.365-7.148 2.42-1.914 5.271-2.893 8.425-2.893 1.902 0 3.587.34 4.97 1.064a7.708 7.708 0 0 1 3.284 3.233l.086.17-4.796 5.02-.173-.425c-.389-1.02-.908-1.787-1.642-2.297-.691-.51-1.599-.766-2.68-.766-1.209 0-2.29.34-3.197 1.021-.907.68-1.469 1.532-1.642 2.595-.259 1.32.821 2.766 3.155 4.212.475.298.82.51 1.08.681 2.247 1.446 3.716 2.936 4.407 4.34.648 1.403.778 3.275.39 5.488-.562 3.105-2.075 5.616-4.538 7.53C15.944 55.064 12.92 56 9.463 56z" style="mix-blend-mode:screen"/><path style="mix-blend-mode:screen" d="M33.1504652 39.7303139L33.2346944 39.7303139 41.4891649 31.1703551 50.2068966 31.1703551 38.8359423 42.1945445 46.1638906 55.0344828 37.3198151 55.0344828 32.4766308 45.8260422 32.3924015 45.8260422 30.792045 55.0344828 24.137931 55.0344828 29.8234082 20.2758621 36.5196368 20.2758621z"/><path style="mix-blend-mode:screen" d="M48.2758621 55.0344828L55.1279199 55.0344828 58.8965517 31.862069 52.0873192 31.862069z"/><path style="mix-blend-mode:screen" d="M64.7423797 55.0344828L57.9310345 55.0344828 63.6714134 21.2413793 70.4827586 21.2413793z"/><path style="mix-blend-mode:screen" d="M74.3975521 55.0344828L67.5862069 55.0344828 73.3265859 21.2413793 80.137931 21.2413793z"/><path d="M93.102 37.236c-.8-.93-1.935-1.648-3.282-1.648-1.093 0-2.313.845-2.524 2.028-.252 1.733 2.104 2.198 4.291 3.254 2.272 1.057 4.418 2.663 3.745 6.762C94.49 52.872 89.82 56 84.898 56c-3.155 0-5.974-1.437-7.657-3.93l3.703-3.973c1.051 1.437 2.566 2.747 4.543 2.747 1.473 0 2.819-1.014 3.071-2.536.337-2.07-1.935-2.535-4.123-3.55-2.187-1.014-4.29-2.409-3.702-6.212.715-4.395 4.25-7.65 8.667-7.65 2.482 0 5.511.761 7.152 2.452l-3.45 3.888zm34.23 17.798h-6.642l2.799-16.98h-2.214l.877-5.365h2.214l.167-1.183c.92-5.45 4.053-10.265 10.486-10.265 1.086 0 2.13.212 3.05.718l-.96 5.703c-.795-.422-1.588-.76-2.591-.76-2.924 0-3.217 3.675-3.51 5.533v.254h5.306l-.877 5.364h-5.306l-2.799 16.981z" style="mix-blend-mode:screen"/><path style="mix-blend-mode:screen" d="M144.724337 55.0344828L138.068966 55.0344828 140.87343 38.1335819 138.613115 38.1335819 139.492127 32.7942425 141.794299 32.7942425 142.798884 27.0344828 149.454256 27.0344828 148.449671 32.7942425 152.551724 32.7942425 151.672713 38.1335819 147.57066 38.1335819z"/><path d="M112.966 34.706c4.071 1.606 6.758 5.577 6.758 10.267 0 6.084-4.911 11.027-10.956 11.027s-10.999-4.943-10.999-11.027c0-4.352 2.519-8.112 6.13-9.929 0 0-.127 5.577 0-1.859.125-7.393-3.863-31.306-19.941-32.278-16.036-.93-22.669 16.688-24.054 21.758.63.719 1.008 1.606 1.008 2.62 0 2.154-1.764 3.929-3.905 3.929-2.14 0-3.904-1.775-3.904-3.93a3.89 3.89 0 0 1 2.561-3.675C64.186-3.487 86.687.19 86.687.19c19.772 1.563 24.81 22.18 26.069 32.616l.21 1.901z" style="mix-blend-mode:screen"/></g></svg>

<?xml version="1.0" encoding="UTF-8"?>
<svg width="160px" height="72px" viewBox="0 0 160 72" version="1.1" xmlns="http://www.w3.org/2000/svg" xmlns:xlink="http://www.w3.org/1999/xlink">
    <!-- Generator: Sketch 52.1 (67048) - http://www.bohemiancoding.com/sketch -->
    <title>customer/skillsoft</title>
    <desc>Created with Sketch.</desc>
    <g id="customer/skillsoft" stroke="none" stroke-width="1" fill="none" fill-rule="evenodd">
        <g id="skillsoft" transform="translate(4.000000, 8.000000)" fill="#7B7194">
            <path d="M9.46296296,56 C7.34567901,56 5.48765432,55.5745579 3.93209877,54.7236737 C2.37654321,53.8727894 1.12345679,52.5964631 0.12962963,50.8946946 L0,50.7245178 L5.05555556,45.6192124 L5.22839506,46.0446545 C5.74691358,47.3209809 6.4382716,48.2569535 7.30246914,48.8525725 C8.16666667,49.4481914 9.24691358,49.7460009 10.5864198,49.7460009 C11.9691358,49.7460009 13.1790123,49.363103 14.0864198,48.6398514 C14.9938272,47.9165998 15.5987654,46.8529946 15.8148148,45.5766682 C15.9444444,44.7683282 15.8580247,44.0025324 15.5555556,43.3643692 C15.2098765,42.7262061 14.6481481,42.1305871 13.7839506,41.6200566 C13.5679012,41.4924239 13.2654321,41.2797029 12.8333333,41.0244376 C10.3271605,39.5353902 8.72839506,38.3016081 7.95061728,37.2380028 C7.38888889,36.4296628 7,35.5362343 6.82716049,34.5151733 C6.65432099,33.5366564 6.65432099,32.4305069 6.87037037,31.2818132 C7.34567901,28.4738952 8.81481481,26.0488752 11.2345679,24.1343857 C13.654321,22.2198962 16.5061728,21.2413793 19.6604938,21.2413793 C21.5617284,21.2413793 23.2469136,21.581733 24.6296296,22.3049846 C26.0123457,23.0282362 27.1358025,24.0918415 27.9135802,25.5383447 L28,25.7085215 L23.2037037,30.7287384 L23.0308642,30.3032963 C22.6419753,29.2822353 22.1234568,28.5164395 21.3888889,28.0059089 C20.6975309,27.4953784 19.7901235,27.2401131 18.7098765,27.2401131 C17.5,27.2401131 16.4197531,27.5804668 15.5123457,28.2611742 C14.6049383,28.9418816 14.0432099,29.7927658 13.8703704,30.8563711 C13.6111111,32.1752416 14.691358,33.6217448 17.0246914,35.068248 C17.5,35.3660575 17.845679,35.5787785 18.1049383,35.7489554 C20.3518519,37.1954586 21.8209877,38.684506 22.5123457,40.0884649 C23.1604938,41.4924239 23.2901235,43.3643692 22.9012346,45.5766682 C22.3395062,48.6823956 20.8271605,51.1925041 18.3641975,53.1069936 C15.9444444,55.0640273 12.9197531,56 9.46296296,56 Z" id="Path" style="mix-blend-mode: screen;"></path>
            <polygon id="Path" style="mix-blend-mode: screen;" points="33.1504652 39.7303139 33.2346944 39.7303139 41.4891649 31.1703551 50.2068966 31.1703551 38.8359423 42.1945445 46.1638906 55.0344828 37.3198151 55.0344828 32.4766308 45.8260422 32.3924015 45.8260422 30.792045 55.0344828 24.137931 55.0344828 29.8234082 20.2758621 36.5196368 20.2758621"></polygon>
            <polygon id="Path" style="mix-blend-mode: screen;" points="48.2758621 55.0344828 55.1279199 55.0344828 58.8965517 31.862069 52.0873192 31.862069"></polygon>
            <polygon id="Path" style="mix-blend-mode: screen;" points="64.7423797 55.0344828 57.9310345 55.0344828 63.6714134 21.2413793 70.4827586 21.2413793"></polygon>
            <polygon id="Path" style="mix-blend-mode: screen;" points="74.3975521 55.0344828 67.5862069 55.0344828 73.3265859 21.2413793 80.137931 21.2413793"></polygon>
            <path d="M93.1019458,37.2358063 C92.3026069,36.306049 91.1667042,35.5876001 89.8204493,35.5876001 C88.7266171,35.5876001 87.5065735,36.4328341 87.2962212,37.6161616 C87.0437984,39.3488912 89.3997446,39.8137699 91.5874089,40.8703123 C93.8592142,41.9268548 96.0048081,43.5327993 95.3316806,47.6321839 C94.4902712,52.8726344 89.8204493,56 84.8982045,56 C81.7429194,56 78.924198,54.5631023 77.2413793,52.0696621 L80.9435805,48.0970626 C81.9953422,49.5339603 83.509879,50.8440729 85.487191,50.8440729 C86.9596574,50.8440729 88.3059124,49.8297922 88.5583352,48.3083711 C88.894899,46.2375479 86.6230937,45.7726692 84.4354293,44.7583885 C82.247765,43.7441077 80.1442416,42.3494717 80.7332282,38.545919 C81.4484261,34.1507024 84.9823454,30.8965517 89.3997446,30.8965517 C91.8819022,30.8965517 94.9109759,31.6572623 96.5517241,33.3477302 L93.1019458,37.2358063 Z" id="Path" style="mix-blend-mode: screen;"></path>
            <path d="M127.332228,55.0344828 L120.689655,55.0344828 L123.488727,38.0534483 L121.274536,38.0534483 L122.151857,32.6887931 L124.366048,32.6887931 L124.533156,31.5060345 C125.452255,26.0568966 128.585544,21.2413793 135.019231,21.2413793 C136.105438,21.2413793 137.149867,21.4525862 138.068966,21.9594828 L137.10809,27.662069 C136.314324,27.2396552 135.520557,26.9017241 134.517905,26.9017241 C131.593501,26.9017241 131.301061,30.5767241 131.008621,32.4353448 L131.008621,32.6887931 L136.314324,32.6887931 L135.437003,38.0534483 L130.1313,38.0534483 L127.332228,55.0344828 Z" id="Path" style="mix-blend-mode: screen;"></path>
            <polygon id="Path" style="mix-blend-mode: screen;" points="144.724337 55.0344828 138.068966 55.0344828 140.87343 38.1335819 138.613115 38.1335819 139.492127 32.7942425 141.794299 32.7942425 142.798884 27.0344828 149.454256 27.0344828 148.449671 32.7942425 152.551724 32.7942425 151.672713 38.1335819 147.57066 38.1335819"></polygon>
            <path d="M112.965517,34.706353 C117.037481,36.3118264 119.724138,40.2832605 119.724138,44.9729328 C119.724138,51.0568319 114.812594,56 108.767616,56 C102.722639,56 97.7691154,51.0568319 97.7691154,44.9729328 C97.7691154,40.6212549 100.287856,36.8610673 103.898051,35.0443474 C103.898051,35.0443474 103.772114,40.6212549 103.898051,33.1853782 C104.023988,25.7917508 100.035982,1.87864719 83.958021,0.906913295 C67.922039,-0.0225712964 61.2893553,17.5953866 59.904048,22.6653026 C60.5337331,23.3835407 60.9115442,24.270776 60.9115442,25.2847592 C60.9115442,27.4394735 59.1484258,29.213944 57.0074963,29.213944 C54.8665667,29.213944 53.1034483,27.4394735 53.1034483,25.2847592 C53.1034483,23.5947872 54.1529235,22.158311 55.6641679,21.6090701 C64.185907,-3.48701387 86.6866567,0.188675202 86.6866567,0.188675202 C106.458771,1.75189929 111.496252,22.3695575 112.755622,32.8051345 L112.965517,34.706353 Z" id="Path" style="mix-blend-mode: screen;"></path>
        </g>
    </g>
</svg>
